X:835
T:Quem Pastores
C:Traditional German
N:For the dance "Shepherd's Delight" by Hilary Herbert.
L:1/4
M:3/4
R:Triple-time
%%MIDI beat 100 95 80
S:Colin Hume's website,  colinhume.com  - chords can also be printed below the stave.
Q:1/4=116
%%MIDI chordname dim 0 3 6 9
K:G
V:1 name=Tune
%%MIDI gchord b2c
%%MIDI program 73     Flute
%%MIDI chordprog 46   Orchestral Harp
%%MIDI bassprog 46    Orchestral Harp
%%MIDI control 10 0   Left speaker
[| "G"G2 B | "/"d2 B | "C"cde | "D"d2 A | "G"Bcd | "Am"cBA | "C"G2 E | "D7"F2 D |
"G"B2 c | "/"d2 e | "D"d2 "B7/D#"A | "Em"B2 G | "Am"c2 c | "Em"BA G | "C"GE "D7"F | "G"G3 |]
V:2 name=Vln.
%%MIDI program 46     Orchestral Harp
%%MIDI control 10 127    Right speaker
[| "_pizzicato" GBd | GBd | EGc | FAd | GAB | ABc | EFG | DFA |
GDA | BGc | AGF | GFE | AGF | GFE | CB,A, | G,3 |]
V:1
"G"G2 B | "/"d2 B | "C"cde | "D"d2 A | "G"Bcd | "Am"cBA | "C"G2 E | "D7"F2 D |\
"G"B2 c | "/"d2 e | "D"d2 "B7/D#"A | "Em"B2 G | "Am"c2 c | "Em"BA G | "C"GE "D7"F | "G"G3 |]
V:2
%%MIDI program 69     English Horn
"_arco"B3 | G3 | E3 | F3 | G3 | A,3 | C3 | D3 |
G,2A, | B,2C | D2^D | E3 | A,3 | B,3 | C2D | B,3 |]

